Adwaita++-Light/panel/16/solaar-attention.svg

<svg height="16" width="16" xmlns="http://www.w3.org/2000/svg">
  <path d="m3 1c-1.108 0-2 .892-2 2v10c0 1.108.892 2 2 2h10c1.108 0 2-.892 2-2v-10c0-1.108-.892-2-2-2zm2.8652 1.3047 1.5858 2.748c.181-.0344.3648-.052.549-.0527.1836.0008.3667.0184.547.0527l1.588-2.748 1.73 1-1.586 2.75c.239.279.424.5994.547.9453h3.174v2h-3.176c-.121.3469-.305.6686-.543.949l1.584 2.746-1.73 1-1.586-2.748c-.181.034-.3648.052-.549.053-.1836-.001-.3667-.019-.547-.053l-1.5878 2.748-1.7304-1 1.5859-2.75c-.2386-.2789-.4239-.5992-.5469-.945h-3.1738v-2h3.1758c.1213-.347.3054-.6687.543-.9492l-1.584-2.7461z" fill="#444"/>
  <path d="m8 6a2 2 0 0 0 -2 2 2 2 0 0 0 2 2 2 2 0 0 0 2-2 2 2 0 0 0 -2-2z" fill="#4285f4"/>
</svg>

<svg xmlns="http://www.w3.org/2000/svg" width="16" height="16" version="1.1">
 <defs>
  <style id="current-color-scheme" type="text/css">
   .ColorScheme-Text { color:#444444; } .ColorScheme-Highlight { color:#4285f4; }
  </style>
 </defs>
 <path style="fill:currentColor" class="ColorScheme-Text" d="M 3,1 C 1.892,1 1,1.892 1,3 V 13 C 1,14.108 1.892,15 3,15 H 13 C 14.108,15 15,14.108 15,13 V 3 C 15,1.892 14.108,1 13,1 Z M 5.8652,2.3047 7.451,5.0527 C 7.632,5.0183 7.8158,5.0007 8,5 8.1836,5.0008 8.3667,5.0184 8.547,5.0527 L 10.135,2.3047 11.865,3.3047 10.279,6.0547 C 10.518,6.3337 10.703,6.6541 10.826,7 H 14 V 9 H 10.824 C 10.703,9.3469 10.519,9.6686 10.281,9.949 L 11.865,12.695 10.135,13.695 8.549,10.947 C 8.368,10.981 8.1842,10.999 8,11 7.8164,10.999 7.6333,10.981 7.453,10.947 L 5.8652,13.695 4.1348,12.695 5.7207,9.945 C 5.4821,9.6661 5.2968,9.3458 5.1738,9 H 2 V 7 H 5.1758 C 5.2971,6.653 5.4812,6.3313 5.7188,6.0508 L 4.1348,3.3047 Z"/>
 <path style="fill:currentColor" class="ColorScheme-Highlight" d="M 8,6 A 2,2 0 0 0 6,8 2,2 0 0 0 8,10 2,2 0 0 0 10,8 2,2 0 0 0 8,6 Z"/>
</svg>
